X: 1
T: Green Lady, The
M: 6/8
L: 1/8
R: jig
K: Dmix
|:A2F GAG|FDD DE/2F/2G|Add efd|^cAB =cAG|
A2F GAG|FDD DFA|def gag|ed^c d3:|
|:de=f g3|g^fg afd|gfg a2f|ged ^cAG|
A2F GAG|FDD DFA|def gag|edc d3:|
